X:1
T:Constance (Sullivan), 87.87 D
T:Constance (Sullivan), 87.87 D
T:Arthur Seymour Sullivan, 1875
T:Public Domain Courtesy of the Cyber Hymnal™
C:Arthur Seymour Sullivan, 1875
Z:Public Domain
Z:Courtesy of the Cyber Hymnal™
%%score ( 1 2 ) ( 3 4 )
L:1/8
Q:1/4=110
M:4/4
K:Eb
V:1 treble 
V:2 treble 
V:3 bass 
V:4 bass 
V:1
 [EG]2 | [EG]3 [EG] [DA]2 [DF]2 | [EB]3 [Ec] [EB]2 [EA]2 | [EG]2 [EG]2 [DA]3 [DF] | %4
 [DF]2 E4 [EG]2 | [GB]3 [FA] [FA]2 [EG]2 | [DG]3 [DF] [CE]2 [CE]2 | [B,D]2 [DG]2 [GB]3 [^F=A] | %8
 [^F=A]2 G4 G2 | [=EG]2 ([DF][EG]) [FA]2 [FA]2 | [=EG]2 ([DF][EG]) [FA]2 [GB]2 | %11
 [Ac]3 [GB] [FA]2 [EG]2 | [EG]2 [DF]4 [DB]2 | [EB]2 [DB]2 [Ee]3 [EG] | [DG]2 [CG]2 [B,B]3 [CE] | %15
 [B,E]2 [B,E]2 [EG]3 [DF] | [DF]2 !fermata!E4 |] %17
V:2
 x2 | x8 | x8 | x8 | x2 E4 x2 | x8 | x8 | x8 | x2 G4 G2 | x8 | x8 | x8 | x8 | x8 | x8 | x8 | %16
 x2 E4 |] %17
V:3
 [E,B,]2 | [E,B,]3 [E,B,] [F,B,]2 [A,B,]2 | [G,B,]3 A, [G,B,]2 [A,C]2 | %3
 B,2 [B,,B,]2 [B,,F,]3 [B,,A,] | [B,,A,]2 [E,G,]4 [E,B,]2 | [D,B,]3 [D,B,] [E,B,]2 B,2 | %6
 [G,=B,]3 [G,B,] [C,C]2 [C,G,]2 | [D,G,]2 [D,B,]2 [D,D]3 [D,C] | [D,C]2 [G,,B,]4 G,2 | %9
 [C,B,]2 [C,B,]2 [F,A,]2 C2 | [C,C]2 [C,C]2 [F,C]2 [E,_D]2 | [A,C]3 [A,,C] [A,,C]2 [=A,,C]2 | %12
 [B,,B,]2 [B,,B,]4 [A,B,]2 | [G,B,]2 [F,A,]2 [E,G,]3 [C,E,] | [B,,E,]2 [A,,E,]2 [G,,E,]3 [A,,A,] | %15
 [B,,G,]2 [B,,G,]2 [B,,B,]3 [B,,A,] | [B,,A,]2 !fermata![E,G,]4 |] %17
V:4
 x2 | x8 | x3 A, x4 | B,2 x6 | x8 | x6 (E,F,) | x8 | x8 | x6 G,2 | x6 (A,,B,,) | x8 | x8 | x8 | %13
 x8 | x8 | x8 | x6 |] %17

